Hatter-kde/actions/16/format-text-strikethrough.svg

<svg xmlns="http://www.w3.org/2000/svg" viewBox="0 0 16 16">
  <defs id="defs3051">
    <style type="text/css" id="current-color-scheme">
      .ColorScheme-Text {
        color:#363636;
      }
      </style>
  </defs>
 <path style="fill:currentColor;fill-opacity:1;stroke:none" 
       d="M 8.28125 2 C 5.87276 1.9779 2.98125 3.61871 4.59375 7.3125 L 10.25 7.3125 C 1.25 5.0625 8.75114 -0.1875 10.28125 5.8125 L 11 5.8125 L 11 3.75 C 10.9887 2.625 9.72635 2.01328 8.28125 2 z M 2 8 L 2 8.75 L 2 9 L 14 9 L 14 8.75 L 14 8 L 2 8 z M 8.75 9.5 C 12.71497 13.43247 6.77502 14.69352 5 10.25 L 4.25 10.25 L 4.25 12.5 C 4.39332 14.38685 13.25 15.5 11.75 9.5 L 8.75 9.5 z "
     class="ColorScheme-Text"
     />
</svg>

<?xml version="1.0" encoding="UTF-8"?>
<svg viewBox="0 0 16 16" xmlns="http://www.w3.org/2000/svg">
 <defs id="defs3051">
  <style id="current-color-scheme" type="text/css">.ColorScheme-Text {
        color:#363636;
      }</style>
 </defs>
 <path class="ColorScheme-Text" d="m8.2812 2c-2.4085-0.0221-5.3 1.6187-3.6875 5.3125h5.6562c-9-2.25-1.4989-7.5 0.03125-1.5h0.71875v-2.0625c-0.0113-1.125-1.2736-1.7367-2.7188-1.75zm-6.2812 6v0.75 0.25h12v-0.25-0.75h-12zm6.75 1.5c3.965 3.9325-1.975 5.1935-3.75 0.75h-0.75v2.25c0.14332 1.8868 9 3 7.5-3h-3z" fill="currentColor"/>
</svg>
